X: 31592
T: Palmer's Gate
R: reel
M: 4/4
K: Amajor
|:cFFF ABcA|BecA BAFG|A3B c3A|cfec B2 AB|
cFFF ABcA|B3A BAFG|ABce fecA|FAGE F2 AB:|
|:cffe f3g|a2 ga fecB|A3c eAcA|cefe f3e|
cffe f3g|aa ga fecB|ABce fecA|FAGE F3 A:|

